X: 9638
T: Dawns Forys
R: waltz
M: 3/4
K: Dmajor
|:dA BG AF|GE FD EC|D/E/F/G/ .A.F DA|Bc de/d/ .c.A:|
|:ae fd ec|dB c/d/e/d/ .c.A|d/e/f/g/ .a.f eg|fa ea .e.c|
af ge fd|ec dB cA|B/c/d/B/ A/B/A/G/ F/G/F/E/|Dd A/G/F/E/ D2:|

